src/_assets/icons/verified-check-green.svg

<svg viewBox="0 0 20 19" fill="none" xmlns="http://www.w3.org/2000/svg">
<path d="M20 9.5L17.7818 6.97571L18.0909 3.63714L14.8091 2.89524L13.0909 0L10 1.32095L6.90909 0L5.19091 2.88619L1.90909 3.61905L2.21818 6.96667L0 9.5L2.21818 12.0243L1.90909 15.3719L5.19091 16.1138L6.90909 19L10 17.67L13.0909 18.991L14.8091 16.1048L18.0909 15.3629L17.7818 12.0243L20 9.5ZM7.61818 13.1281L5.45455 10.9567C5.1 10.6038 5.1 10.0338 5.45455 9.68095L5.51818 9.61762C5.87273 9.26476 6.45455 9.26476 6.80909 9.61762L8.27273 11.0833L12.9545 6.41476C13.3091 6.0619 13.8909 6.0619 14.2455 6.41476L14.3091 6.4781C14.6636 6.83095 14.6636 7.40095 14.3091 7.75381L8.92727 13.1281C8.55455 13.481 7.98182 13.481 7.61818 13.1281Z" fill="#51D36E"/>
</svg>

<svg xmlns="http://www.w3.org/2000/svg" fill="none" viewBox="0 0 20 19"><path fill="#51D36E" d="m20 9.5-2.218-2.524.309-3.339-3.282-.742L13.091 0 10 1.321 6.91 0 5.19 2.886l-3.28.733.308 3.348L0 9.5l2.218 2.524-.309 3.348 3.282.742L6.909 19 10 17.67l3.09 1.321 1.72-2.886 3.28-.742-.308-3.339zM7.618 13.128l-2.163-2.171a.9.9 0 0 1 0-1.276l.063-.063a.92.92 0 0 1 1.291 0l1.464 1.465 4.682-4.668a.92.92 0 0 1 1.29 0l.064.063a.9.9 0 0 1 0 1.276l-5.382 5.374a.94.94 0 0 1-1.309 0"/></svg>
